Icons/TM_Icons/0106-wikitime.svg

<svg xmlns="http://www.w3.org/2000/svg" xml:space="preserve" width="400" height="200" overflow="hidden" viewBox="-44.5 0 178 89"><defs><clipPath id="clip0"><path d="M3936 2172h89v89h-89z"/></clipPath></defs><g fill-rule="evenodd" clip-path="url(#clip0)" transform="translate(-3936 -2172)"><path d="M4025 2212v9h-8.94l.11-1.51-.17-7.49Zm-4 23.3-4.48 7.7-7.52-4.3 2.44-3.74 2.04-3.96Zm-14 17.19-8.35 4.51-4.65-7.53 7.05-3.62 1.33-.85Zm-22-.49v9h-9v-8.94l1.51.11Zm-19-2.52-4.3 7.52-7.7-4.48 4.3-7.52 3.74 2.44Zm-14-10.74-7.48 4.26-4.52-7.71 7.53-4.29 3.62 6.5Zm-7-17.74h-9v-9h8.94l-.11 1.51Zm7-26.34-2.44 4.05-2.04 4.29-7.52-4.66 4.48-8.34Zm14-11.13-6.5 3.62-1.24.85-4.26-7.49 7.71-4.51Zm19-11.53v8.94l-1.51-.11-7.49.17v-9Zm22 8.48-4.66 7.52-4.05-2.44-4.29-2.04 4.66-7.52Zm14 17.87-7.53 4.65-3.62-7.05-.85-1.33 7.48-4.62Z"/></g></svg>

<svg width="89" height="89" xmlns="http://www.w3.org/2000/svg" xmlns:xlink="http://www.w3.org/1999/xlink" xml:space="preserve" overflow="hidden"><defs><clipPath id="clip0"><rect x="3936" y="2172" width="89" height="89"/></clipPath></defs><g clip-path="url(#clip0)" transform="translate(-3936 -2172)"><path d="M4025 2212 4025 2221 4016.06 2221 4016.17 2219.49 4016 2212Z" fill-rule="evenodd"/><path d="M4021 2235.3 4016.52 2243 4009 2238.7 4011.44 2234.96 4013.48 2231Z" fill-rule="evenodd"/><path d="M4007 2252.49 3998.65 2257 3994 2249.47 4001.05 2245.85 4002.38 2245Z" fill-rule="evenodd"/><path d="M3985 2252 3985 2261 3976 2261 3976 2252.06 3977.51 2252.17Z" fill-rule="evenodd"/><path d="M3966 2249.48 3961.7 2257 3954 2252.52 3958.3 2245 3962.04 2247.44Z" fill-rule="evenodd"/><path d="M3952 2238.74 3944.52 2243 3940 2235.29 3947.53 2231 3951.15 2237.5Z" fill-rule="evenodd"/><path d="M3945 2221 3936 2221 3936 2212 3944.94 2212 3944.83 2213.51Z" fill-rule="evenodd"/><path d="M3952 2194.66 3949.56 2198.71 3947.52 2203 3940 2198.34 3944.48 2190Z" fill-rule="evenodd"/><path d="M3966 2183.53 3959.5 2187.15 3958.26 2188 3954 2180.51 3961.71 2176Z" fill-rule="evenodd"/><path d="M3985 2172 3985 2180.94 3983.49 2180.83 3976 2181 3976 2172Z" fill-rule="evenodd"/><path d="M4007 2180.48 4002.34 2188 3998.29 2185.56 3994 2183.52 3998.66 2176Z" fill-rule="evenodd"/><path d="M4021 2198.35 4013.47 2203 4009.85 2195.95 4009 2194.62 4016.48 2190Z" fill-rule="evenodd"/></g></svg>
